packages/definitions/src/definitions/pl/a/ampl/ampl.logo.svg

<svg xmlns="http://www.w3.org/2000/svg" xml:space="preserve" style="fill-rule:evenodd;clip-rule:evenodd;stroke-linejoin:round;stroke-miterlimit:2" viewBox="0 0 38 31"><path d="M18.175 30.566c-1.06 0-2.211-.667-3.669-1.513-1.893-1.097-4.249-2.463-7.287-2.82-3.729-.437-5.801-1.278-6.517-2.644-.438-.829-.347-1.795.27-2.954l.017-.033 6.459-8.262c.842-1.761 2.169-3.272 3.947-4.495l-.036-.422c-.352-4.107-.323-6.694.906-6.904q.484-.084.975-.084c2.634 0 4.181 1.867 4.743 2.712h7.199c.831-.684 3.052-2.425 4.092-2.425a.86.86 0 0 1 .415.1c2.077 1.159 1.125 4.687.627 6.133l3.476 2.911-.532 1.332 3.762 6.613-1.248 1.307c.886 2.625-.686 3.927-1.299 4.32-.292 2.587-1.869 3.139-3.161 3.139-2.081 0-4.514-1.431-5.077-1.78l-3.544.091c-.32 1.281-1.145 2.742-2.632 4.671-.522.678-1.14 1.007-1.888 1.007" style="fill:#231f20;fill-rule:nonzero"/><path d="M13.244.868c2.688 0 4.172 2.161 4.506 2.712h7.589c.199-.165 2.936-2.424 3.937-2.424q.107-.003.203.045c1.986 1.107.61 5.134.329 5.893l3.465 2.903-.491 1.235 3.705 6.515-1.21 1.267c1.185 3.062-1.211 4.163-1.211 4.163-.18 2.27-1.363 2.968-2.751 2.968-2.217 0-4.956-1.784-4.956-1.784l-3.854.099s-.059 0-.161-.004c-.214 1.187-.94 2.654-2.627 4.839-.46.598-.968.84-1.544.84-2.248 0-5.516-3.698-10.906-4.331-6.34-.745-7.147-2.646-5.911-4.964l6.468-8.27c.984-2.082 2.555-3.528 4.026-4.505-.067-1.143-.756-6.904.494-7.117a5 5 0 0 1 .902-.078m0-.868a6 6 0 0 0-1.048.091c-1.571.269-1.657 2.798-1.265 7.368l.015.174c-1.724 1.23-3.022 2.734-3.868 4.476L.67 20.305l-.047.059-.035.068c-.679 1.276-.771 2.406-.271 3.358.788 1.504 2.965 2.417 6.851 2.873 2.948.346 5.261 1.688 7.12 2.766 1.513.875 2.709 1.571 3.887 1.571.879 0 1.629-.396 2.231-1.177 1.404-1.822 2.236-3.247 2.622-4.51l3.094-.081c.75.454 3.12 1.779 5.193 1.779 1.178 0 3.151-.444 3.565-3.307.968-.667 2.06-2.152 1.387-4.472l.848-.888.446-.466-.319-.56-3.499-6.153.341-.847.234-.583-.482-.403-3.007-2.52c.538-1.681 1.307-5.126-.921-6.369a1.3 1.3 0 0 0-.626-.155c-1.088 0-3.036 1.436-4.248 2.425h-6.819C17.519 1.745 15.896.001 13.244 0" style="fill:#fff;fill-rule:nonzero"/><path d="M16.021 6.214a.9.9 0 0 0-.373.077s-5.521 1.398-7.826 6.278l-6.468 8.269c-1.233 2.318-.426 4.22 5.915 4.965 6.768.795 10.19 6.423 12.45 3.491 4.106-5.327 2.521-6.384 1.721-9.524-.765-2.992-2.886-13.56-5.419-13.56" style="fill:url(#a);fill-rule:nonzero"/><path d="M14.551 3.577h11.068l7.657 6.416-.494 1.239 3.705 6.516-1.211 1.267c1.186 3.062-1.209 4.162-1.209 4.162-.47 5.899-7.707 1.185-7.707 1.185l-3.855.099s-10.523-.099-8.349-7.503c2.174-7.405-6.373-6.073.395-13.381" style="fill:#0a1a28;fill-rule:nonzero"/><path d="M11.855 8.203c0-.69-.826-7.033.487-7.257 3.691-.631 5.484 2.764 5.484 2.764zM25.321 3.597s3.383-2.829 4.16-2.396c2.195 1.224.281 6.016.281 6.016z" style="fill:#0a1a28;fill-rule:nonzero"/><path d="M23.098 11.329s2.595-.326 3.959.282c0 0-.006 4.358-3.959-.282" style="fill:#ccc26a;fill-rule:nonzero"/><path d="M36.458 17.805c-.267.246-.491.489-.693.703-.731.774-1.077 1.388-1.216 1.661-.068.134-.107.066-.141 0-.958-1.835-2.45-2.41-2.821-2.56-.055-.022-.033-.054 0-.065 1.624-.521 4.358.021 4.871.161.056.015.025.077 0 .1M34.298 20.884c-.299.316-1.853 1.844-5.023 3.065-.015.006-.025.012.014 0 .499-.143 3.94-1.112 4.751-.769.012.005.024.007.029-.021q.032-.178.266-2.275 0-.039-.037 0" style="fill:#324a6d;fill-rule:nonzero"/><path d="M25.651 12.831c-.475 0-.863-.474-.863-1.058 0-.191.018-.392.12-.531q.571.015.856.046.236.026.699.129.049.168.05.356c0 .583-.387 1.058-.862 1.058" style="fill:#25234d;fill-rule:nonzero"/><path d="M25.779 11.3c-.005.249-.153.381-.348.381s-.354-.201-.354-.449z" style="fill:#fff;fill-rule:nonzero"/><defs><radialGradient id="a" cx="0" cy="0" r="1" gradientTransform="translate(43.973 19.848)scale(17.1663)" gradientUnits="userSpaceOnUse"><stop offset="0" style="stop-color:#324a6d;stop-opacity:1"/><stop offset="1" style="stop-color:#0d1b28;stop-opacity:1"/></radialGradient></defs></svg>

<?xml version="1.0" encoding="UTF-8" standalone="no"?>
<svg width="100%" height="100%" viewBox="0 0 38 31" version="1.1" xmlns="http://www.w3.org/2000/svg"
    xmlns:xlink="http://www.w3.org/1999/xlink" xml:space="preserve"
    xmlns:serif="http://www.serif.com/"
    style="fill-rule:evenodd;clip-rule:evenodd;stroke-linejoin:round;stroke-miterlimit:2;">
    <g>
        <path id="Path" d="M18.175,30.566C17.115,30.566 15.964,29.899 14.506,29.053C12.613,27.956 10.257,26.59 7.219,26.233C3.49,25.796 1.418,24.955 0.702,23.589C0.264,22.76 0.355,21.794 0.972,20.635L0.989,20.602L7.448,12.34C8.29,10.579 9.617,9.068 11.395,7.845C11.385,7.725 11.373,7.583 11.359,7.423C11.007,3.316 11.036,0.729 12.265,0.519C12.587,0.463 12.913,0.435 13.24,0.435C15.874,0.435 17.421,2.302 17.983,3.147L25.182,3.147C26.013,2.463 28.234,0.722 29.274,0.722C29.418,0.72 29.561,0.754 29.689,0.822C31.766,1.981 30.814,5.509 30.316,6.955L33.792,9.866L33.26,11.198L37.022,17.811L35.774,19.118C36.66,21.743 35.088,23.045 34.475,23.438C34.183,26.025 32.606,26.577 31.314,26.577C29.233,26.577 26.8,25.146 26.237,24.797L22.693,24.888C22.373,26.169 21.548,27.63 20.061,29.559C19.539,30.237 18.921,30.566 18.173,30.566" style="fill:rgb(35,31,32);fill-rule:nonzero;"/>
        <path id="Shape" d="M13.244,0.868C15.932,0.868 17.416,3.029 17.75,3.58L25.339,3.58C25.538,3.415 28.275,1.156 29.276,1.156C29.346,1.154 29.416,1.169 29.479,1.201C31.465,2.308 30.089,6.335 29.808,7.094L33.273,9.997L32.782,11.232L36.487,17.747L35.277,19.014C36.462,22.076 34.066,23.177 34.066,23.177C33.886,25.447 32.703,26.145 31.315,26.145C29.098,26.145 26.359,24.361 26.359,24.361L22.505,24.46C22.505,24.46 22.446,24.46 22.344,24.456C22.13,25.643 21.404,27.11 19.717,29.295C19.257,29.893 18.749,30.135 18.173,30.135C15.925,30.135 12.657,26.437 7.267,25.804C0.927,25.059 0.12,23.158 1.356,20.84L7.824,12.57C8.808,10.488 10.379,9.042 11.85,8.065C11.783,6.922 11.094,1.161 12.344,0.948C12.642,0.896 12.943,0.87 13.246,0.87M13.246,0.002C12.894,0.003 12.544,0.033 12.198,0.093C10.627,0.362 10.541,2.891 10.933,7.461C10.938,7.522 10.943,7.58 10.948,7.635C9.224,8.865 7.926,10.369 7.08,12.111L0.67,20.305L0.623,20.364L0.588,20.432C-0.091,21.708 -0.183,22.838 0.317,23.79C1.105,25.294 3.282,26.207 7.168,26.663C10.116,27.009 12.429,28.351 14.288,29.429C15.801,30.304 16.997,31 18.175,31C19.054,31 19.804,30.604 20.406,29.823C21.81,28.001 22.642,26.576 23.028,25.313L26.122,25.232C26.872,25.686 29.242,27.011 31.315,27.011C32.493,27.011 34.466,26.567 34.88,23.704C35.848,23.037 36.94,21.552 36.267,19.232L37.115,18.344L37.561,17.878L37.242,17.318L33.743,11.165L34.084,10.318L34.318,9.735L33.836,9.332L30.829,6.812C31.367,5.131 32.136,1.686 29.908,0.443C29.716,0.339 29.5,0.285 29.282,0.288C28.194,0.288 26.246,1.724 25.034,2.713L18.215,2.713C17.519,1.745 15.896,0.001 13.244,0" style="fill:white;fill-rule:nonzero;"/>
        <path id="Path1" serif:id="Path" d="M16.021,6.214C15.893,6.214 15.766,6.24 15.648,6.291C15.648,6.291 10.127,7.689 7.822,12.569L1.354,20.838C0.121,23.156 0.928,25.058 7.269,25.803C14.037,26.598 17.459,32.226 19.719,29.294C23.825,23.967 22.24,22.91 21.44,19.77C20.675,16.778 18.554,6.21 16.021,6.21" style="fill:url(#_Radial1);fill-rule:nonzero;"/>
        <path id="Path2" serif:id="Path" d="M14.551,3.577L25.619,3.577L33.276,9.993L32.782,11.232L36.487,17.748L35.276,19.015C36.462,22.077 34.067,23.177 34.067,23.177C33.597,29.076 26.36,24.362 26.36,24.362L22.505,24.461C22.505,24.461 11.982,24.362 14.156,16.958C16.33,9.553 7.783,10.885 14.551,3.577" style="fill:rgb(10,26,40);fill-rule:nonzero;"/>
        <path id="Path3" serif:id="Path" d="M11.855,8.203C11.855,7.513 11.029,1.17 12.342,0.946C16.033,0.315 17.826,3.71 17.826,3.71L11.855,8.203Z" style="fill:rgb(10,26,40);fill-rule:nonzero;"/>
        <path id="Path4" serif:id="Path" d="M25.321,3.597C25.321,3.597 28.704,0.768 29.481,1.201C31.676,2.425 29.762,7.217 29.762,7.217L25.321,3.597Z" style="fill:rgb(10,26,40);fill-rule:nonzero;"/>
        <path id="Path5" serif:id="Path" d="M23.098,11.329C23.098,11.329 25.693,11.003 27.057,11.611C27.057,11.611 27.051,15.969 23.098,11.329" style="fill:rgb(204,194,106);fill-rule:nonzero;"/>
        <path id="Path6" serif:id="Path" d="M36.458,17.805C36.191,18.051 35.967,18.294 35.765,18.508C35.034,19.282 34.688,19.896 34.549,20.169C34.481,20.303 34.442,20.235 34.408,20.169C33.45,18.334 31.958,17.759 31.587,17.609C31.532,17.587 31.554,17.555 31.587,17.544C33.211,17.023 35.945,17.565 36.458,17.705C36.514,17.72 36.483,17.782 36.458,17.805Z" style="fill:rgb(50,74,109);fill-rule:nonzero;"/>
        <path id="Path7" serif:id="Path" d="M34.298,20.884C33.999,21.2 32.445,22.728 29.275,23.949C29.26,23.955 29.25,23.961 29.289,23.949C29.788,23.806 33.229,22.837 34.04,23.18C34.052,23.185 34.064,23.187 34.069,23.159C34.091,23.04 34.179,22.282 34.335,20.884C34.335,20.858 34.322,20.858 34.298,20.884Z" style="fill:rgb(50,74,109);fill-rule:nonzero;"/>
        <path id="Path-Copy" d="M25.651,12.831C25.176,12.831 24.788,12.357 24.788,11.773C24.788,11.582 24.806,11.381 24.908,11.242C25.289,11.252 25.574,11.268 25.764,11.288C25.921,11.305 26.154,11.348 26.463,11.417C26.495,11.528 26.513,11.648 26.513,11.773C26.513,12.356 26.126,12.831 25.651,12.831Z" style="fill:rgb(37,35,77);fill-rule:nonzero;"/>
        <path id="Path8" serif:id="Path" d="M25.779,11.3C25.774,11.549 25.626,11.681 25.431,11.681C25.237,11.681 25.077,11.48 25.077,11.232L25.779,11.3Z" style="fill:white;fill-rule:nonzero;"/>
    </g>
    <defs>
        <radialGradient id="_Radial1" cx="0" cy="0" r="1" gradientUnits="userSpaceOnUse" gradientTransform="matrix(17.1663,0,0,17.1663,43.9728,19.8475)"><stop offset="0" style="stop-color:rgb(50,74,109);stop-opacity:1"/><stop offset="1" style="stop-color:rgb(13,27,40);stop-opacity:1"/></radialGradient>
    </defs>
</svg>
